X:1
T:Come, Ye Lofty
T:Come, Ye Lofty
T:George Job Elvey
T:Archer Thompson Gurney, 1871
T:Public Domain Courtesy of the Cyber Hymnal™
T:Public Domain Courtesy of the Cyber Hymnal™
C:George Job Elvey
Z:Public Domain
Z:Courtesy of the Cyber Hymnal™
%%score ( 1 2 ) ( 3 4 )
L:1/8
Q:1/4=110
M:4/4
K:D
V:1 treble 
V:2 treble 
V:3 bass 
V:4 bass 
V:1
 D3 D [DG]2 [DF]2 | D3 D [DB]2 [DA]2 | [Dd]3 [Dd] [Ec]2 [EB]2 | [A,A]2 [DF]2 ([DF]2 [CE]2) | %4
w: 1.~Come, ye lof- ty,|come, ye low- ly,|Let your songs of|glad- ness ring; *|
w: 2.~Come ye poor, no|pomp of sta- tion|Robes the Child your|hearts a- dore; *|
w: 3.~Come, ye child- ren,|blithe and mer- ry,|This one Child your|mo- del make; *|
w: 4.~High a- bove a|star is shin- ing,|And the wise men|haste from far: *|
w: 5.~Hark the Heav’n of|heav’ns is ring- ing:|Christ the Lord to|man is born! *|
 D3 D [DG]2 [DF]2 | D3 D [DB]2 [DA]2 | [Dd]3 [Dd] [Gd]2 [Gc]2 | [FB]2 [F^A]2 [FB]4 | %8
w: In a sta- ble|lies the Ho- ly,|In a man- ger|rests the King:|
w: He, the Lord of|all sal- va- tion,|Shares your want, is|weak and poor:|
w: Christ- mas hol- ly,|leaf, and ber- ry,|All be prized for|His dear sake:|
w: Come, glad hearts, and|spir- its pin- ing—|For you all has|ris’n the star.|
w: Are not all our|hearts, too, sing- ing,|Wel- come, wel- come,|Christ- mas morn?|
 [GB]3 [GB] [GB]2 [FA]2 | [Fd]3 [Fd] [Fd]2 [Fc]2 | d3 (z d) [Ec]2 [FB]2 | [EA]2 [E^G]2 [EA]4 | %12
w: See in Ma- ry’s|arms re- pos- ing|Christ * by high-|* est Heav’n|
w: Ox- en, round a-|bout be- hold them;|Raf- * ters na-|* ked, cold,|
w: Come ye gen- tle|hearts and ten- der,|Come * ye spir-|* its keen|
w: Let us bring our|poor o- bla- tions,|Thanks * and love,|* and faith|
w: Still the Child, all|power pos- sess- ing,|Smiles * as through|* the ag-|
 G3 (z G) [DG]2 [DF]2 | =c3 (z c) [Dc]2 [DB]2 | e3 (z d) [Ec]2 [Dd]2 | [DF]2 [CE]2 D4 x |] %16
w: a- * dored: Come,|your * cir- cle|round * Him clos-|ing, Pi- ous|
w: and * bare, See|the * shep- herds,|God * has told|them That the|
w: and * bold; All|in * all your|hom- * age ren-|der, Weak and|
w: and * praise; Come,|ye * peo- ple,|come, * ye na-|tions, All in|
w: es * past; And|the * song of|Christ- * mas bless-|ing Sweet- ly|
V:2
 D3 D x4 | D3 D x4 | x8 | x8 | D3 D x4 | D3 D x4 | x8 | x8 | x8 | x8 | F2 E2 x5 | x8 | D2 D2 x5 | %13
 =C2 D2 x5 | G2 G2 x5 | x4 D4 x |] %16
V:3
 D,3 D, [D,B,]2 [D,B,]2 | D,3 D, [D,G,]2 [D,F,]2 | [B,,B,]3 [B,,B,] [C,A,]2 [C,G,]2 | %3
 [D,F,]2 [F,A,]2 A,4 | D,3 D, [D,B,]2 [D,A,]2 | D,3 D, [D,G,]2 [D,F,]2 | %6
 [B,,B,]3 [B,,B,] [E,B,]2 [E,E]2 | [D,D]2 [F,C]2 [B,,D]4 | [G,,D]3 [B,,D] [D,D]2 [D,D]2 | %9
 [B,,D]2 [D,B,]2 [F,B,]2 [F,^A,]2 | B,2 [^G,B,]2 A,2 [D,D]2 x | [D,C]2 [E,B,]2 [A,,C]4 | %12
 [B,,B,]2 [C,A,]2 [D,A,]2 [D,A,]2 x | [E,G,]2 [F,A,]2 G,2 G,2 x | %14
 [E,B,]2 [G,B,]2 A,2 ([F,A,][G,B,]) x | A,3 z G, [D,F,]4 |] %16
V:4
 D,3 D, x4 | D,3 D, x4 | x8 | x4 A,4 | D,3 D, x4 | D,3 D, x4 | x8 | x8 | x8 | x8 | B,2 A,2 x5 | %11
 x8 | x9 | x4 G,2 G,2 x | x4 A,2 x3 | A,2 A,,2 x5 |] %16

